X:28
T:The Visit
S:John Moore's Book 1
Z:Transcribed by Paul Barber-Riley  April 2016
M:2/4
L:1/8
K:C
F:http://www.vwml.org/record/Moore1/4493/p17
G|c>dce|faa2|ge f/e/d/c/|BddG|
c>dce|faa2|gc e/d/c/d/|ec!fermata!c:|
|:c|e>fea|cAA2|d>edg|BG G2|
g>^fad|egd2|gB B/A/G/A/|BGG2:|

